X: 21258
T: Keep The Country Bonnie Lassie
R: reel
M: 4/4
K: Edorian
|:eAcA Bcdf|eAcA eAcA|dBcA Bcdf|ecac e2 e2:|
|:ecac Bcdf|ecac ecac|eaec Bcdf|ecac e2 e2:|

